icon-themes/breeze_svg/cmd/lc_arrowshapes.quad-arrow-callout.svg

<svg viewBox="0 0 24 24" xmlns="http://www.w3.org/2000/svg"><path d="m12 4-3 3h2v1h-3v3h-1v-2l-3 3 3 3v-2h1v3h3v1h-2l3 3 3-3h-2v-1h3v-3h1v2l3-3-3-3v2h-1v-3h-3v-1h2z" fill="#4d4d4d"/></svg>

<svg xmlns="http://www.w3.org/2000/svg" viewBox="0 0 24 24">
 <path 
     style="fill:#4d4d4d" 
     d="M 12 4 L 9 7 L 11 7 L 11 8 L 8 8 L 8 11 L 7 11 L 7 9 L 4 12 L 7 15 L 7 13 L 8 13 L 8 16 L 11 16 L 11 17 L 9 17 L 12 20 L 15 17 L 13 17 L 13 16 L 16 16 L 16 13 L 17 13 L 17 15 L 20 12 L 17 9 L 17 11 L 16 11 L 16 8 L 13 8 L 13 7 L 15 7 L 12 4 z "
     />
 </svg>
